apps/www/public/images/career/icons/crisis_control-light.svg

<svg width="49" height="49" viewBox="0 0 49 49" fill="none" xmlns="http://www.w3.org/2000/svg">
<path d="M19.0612 19.2371C20.5187 17.7712 22.432 17.0344 24.3478 17.0278C26.2662 17.0213 28.187 17.7471 29.6549 19.2066C32.5886 22.1235 32.6023 26.8664 29.6854 29.8002C26.7684 32.734 22.0255 32.7477 19.0917 29.8307C17.6971 28.4441 16.9623 26.6448 16.8886 24.8234" stroke="#92CEAC" stroke-width="2" stroke-miterlimit="10" stroke-linejoin="bevel"/>
<path d="M15.4169 15.6135C17.8742 13.1419 21.1003 11.8996 24.3304 11.8886C27.5649 11.8776 30.8034 13.1013 33.2784 15.5621C38.2249 20.4802 38.248 28.4771 33.3299 33.4236C28.4117 38.3702 20.4148 38.3932 15.4683 33.4751C13.1168 31.1371 11.878 28.1034 11.7537 25.0323" stroke="#92CEAC" stroke-width="2" stroke-miterlimit="10" stroke-linejoin="bevel"/>
<path d="M11.7843 12.0024C18.6972 5.04959 29.9376 5.01721 36.8904 11.9301C43.8432 18.843 43.8756 30.0834 36.9627 37.0363C30.0498 43.9891 18.8094 44.0215 11.8566 37.1086C8.46238 33.7339 6.71743 29.3279 6.6246 24.8928" stroke="#299764" stroke-width="2" stroke-miterlimit="10" stroke-linejoin="bevel"/>
<path d="M3.49023 24.8623L25.645 24.8623" stroke="#299764" stroke-width="2" stroke-miterlimit="10" stroke-linejoin="bevel"/>
<ellipse cx="31.1606" cy="17.4014" rx="3.09326" ry="3.09326" fill="#5BB98C" stroke="#299764" stroke-width="2" stroke-miterlimit="10" stroke-linejoin="bevel"/>
<ellipse cx="12.2222" cy="37.24" rx="3.09326" ry="3.09326" fill="#5BB98C" stroke="#299764" stroke-width="2" stroke-miterlimit="10" stroke-linejoin="bevel"/>
</svg>

<svg xmlns="http://www.w3.org/2000/svg" width="49" height="49" fill="none" viewBox="0 0 49 49"><path stroke="#92ceac" stroke-linejoin="bevel" stroke-miterlimit="10" stroke-width="2" d="M19.061 19.237a7.47 7.47 0 0 1 5.287-2.21 7.49 7.49 0 1 1-7.46 7.796"/><path stroke="#92ceac" stroke-linejoin="bevel" stroke-miterlimit="10" stroke-width="2" d="M15.417 15.614a12.6 12.6 0 0 1 8.913-3.725 12.6 12.6 0 0 1 8.948 3.673c4.947 4.918 4.97 12.915.052 17.862s-12.915 4.97-17.862.051a12.59 12.59 0 0 1-3.714-8.443"/><path stroke="#299764" stroke-linejoin="bevel" stroke-miterlimit="10" stroke-width="2" d="M11.784 12.002c6.913-6.952 18.154-6.985 25.106-.072s6.986 18.153.073 25.106-18.154 6.986-25.106.073a17.7 17.7 0 0 1-5.232-12.216M3.49 24.862h22.155"/><circle cx="31.161" cy="17.401" r="3.093" fill="#5bb98c" stroke="#299764" stroke-linejoin="bevel" stroke-miterlimit="10" stroke-width="2"/><circle cx="12.222" cy="37.24" r="3.093" fill="#5bb98c" stroke="#299764" stroke-linejoin="bevel" stroke-miterlimit="10" stroke-width="2"/></svg>
